wallet_core/revocation_portal/assets/images/success_illustration.svg

<svg width="800" height="214" viewBox="0 0 800 214" fill="none" xmlns="http://www.w3.org/2000/svg">
<g clip-path="url(#clip0_44890_1187061)">
<path d="M0 16C0 7.16344 7.16344 0 16 0H784C792.837 0 800 7.16344 800 16V198C800 206.837 792.837 214 784 214H16C7.16343 214 0 206.837 0 198V16Z" fill="#F5F4F9"/>
<path d="M464.882 55H335.868C324.895 55 316 63.8952 316 74.8679V139.084C316 150.057 324.895 158.952 335.868 158.952H464.882C475.855 158.952 484.75 150.057 484.75 139.084V74.8679C484.75 63.8952 475.855 55 464.882 55Z" fill="#E3E0FD"/>
<path d="M349.449 154.174L351.217 151.862L351.778 152.14C351.766 151.087 351.872 149.993 352.144 148.862L377.439 43.7045C379.433 35.4151 387.109 28.6957 395.723 28.6957H441.443C442.029 28.6957 442.597 28.733 443.152 28.7937L444.78 26.3633L451.01 32.5935C451.013 32.597 451.016 32.5994 451.019 32.6029L451.148 32.7301L451.145 32.7418C453.851 35.4956 455.008 39.5942 453.905 44.1797L428.61 149.337C426.766 157.007 418.808 163.226 410.836 163.226H363.709C360.022 163.226 356.991 161.884 354.966 159.694L349.449 154.174Z" fill="#E3E0FD" stroke="#152A62" stroke-miterlimit="10"/>
<path d="M421.216 159.737C418.152 161.9 414.499 163.223 410.837 163.223H363.71C360.023 163.223 356.992 161.882 354.968 159.692L349.45 154.173L351.218 151.862L351.777 152.14C351.766 151.107 351.871 150.033 352.132 148.924L413.341 151.861L421.216 159.737Z" fill="#F5F4F9" stroke="#152A62" stroke-miterlimit="10"/>
<path d="M357.543 157.055H404.669C412.64 157.055 420.598 150.837 422.444 143.167L447.738 38.0089C449.732 29.7194 444.365 23 435.751 23H390.955C382.34 23 373.74 29.7194 371.746 38.0089L346.452 143.167C344.606 150.837 349.572 157.055 357.543 157.055Z" fill="#152A62" stroke="#152A62" stroke-miterlimit="10"/>
<path d="M405.919 152.652C411.245 152.652 416.582 148.479 417.816 143.351L443.11 38.1935C443.793 35.3545 443.282 32.6648 441.669 30.6184C440.034 28.544 437.488 27.4023 434.5 27.4023H428.343C426.55 27.4023 424.82 28.7565 424.404 30.4854C423.83 32.8738 421.276 34.7451 418.59 34.7451H401.949C400.687 34.7451 399.661 34.3248 399.059 33.5602C398.506 32.8598 398.351 31.9247 398.609 30.8543C398.822 29.9717 398.649 29.0915 398.135 28.439C397.616 27.7794 396.788 27.4023 395.862 27.4023H389.704C383.736 27.4023 377.754 32.0765 376.372 37.8234L351.077 142.981C350.466 145.524 350.926 147.934 352.371 149.769C353.836 151.629 356.116 152.653 358.791 152.653H405.919V152.652Z" fill="white" stroke="#152A62" stroke-miterlimit="10"/>
<path d="M447.707 46.8945L450.569 49.6285L449.379 54.6622L446.516 51.9282L447.707 46.8945Z" stroke="#152A62" stroke-miterlimit="10" stroke-linejoin="round"/>
<path d="M445.679 55.168L448.541 57.9019L447.351 62.9356L444.488 60.2017L445.679 55.168Z" stroke="#152A62" stroke-miterlimit="10" stroke-linejoin="round"/>
<path d="M386.784 183.709C408.924 183.709 426.872 181.984 426.872 179.855C426.872 177.726 408.924 176 386.784 176C364.645 176 346.697 177.726 346.697 179.855C346.697 181.984 364.645 183.709 386.784 183.709Z" fill="#E3E0FD"/>
<path d="M349.382 154.174L351.151 151.862L351.711 152.14C351.7 151.087 351.806 149.993 352.078 148.862L377.372 43.7045C379.366 35.4151 387.043 28.6957 395.657 28.6957H441.377C441.963 28.6957 442.53 28.733 443.086 28.7937L444.713 26.3633L450.943 32.5935C450.947 32.597 450.949 32.5994 450.953 32.6029L451.081 32.7301L451.079 32.7418C453.785 35.4956 454.942 39.5942 453.838 44.1797L428.544 149.337C426.699 157.007 418.742 163.226 410.77 163.226H363.643C359.955 163.226 356.925 161.884 354.899 159.694L349.382 154.174Z" fill="#E3E0FD" stroke="#152A62" stroke-miterlimit="10"/>
<path d="M421.15 159.737C418.085 161.9 414.433 163.223 410.771 163.223H363.644C359.956 163.223 356.926 161.882 354.901 159.692L349.383 154.173L351.152 151.862L351.711 152.14C351.699 151.107 351.804 150.033 352.066 148.924L413.275 151.861L421.15 159.737Z" fill="#F5F4F9" stroke="#152A62" stroke-miterlimit="10"/>
<path d="M357.476 157.055H404.603C412.574 157.055 420.532 150.837 422.377 143.167L447.672 38.0089C449.666 29.7194 444.298 23 435.684 23H390.889C382.274 23 373.674 29.7194 371.68 38.0089L346.385 143.167C344.539 150.837 349.505 157.055 357.476 157.055Z" fill="#152A62" stroke="#152A62" stroke-miterlimit="10"/>
<path d="M405.853 152.652C411.178 152.652 416.516 148.479 417.749 143.351L443.044 38.1935C443.727 35.3545 443.216 32.6648 441.602 30.6184C439.968 28.544 437.422 27.4023 434.433 27.4023H428.277C426.484 27.4023 424.754 28.7565 424.338 30.4854C423.764 32.8738 421.21 34.7451 418.523 34.7451H401.883C400.621 34.7451 399.595 34.3248 398.992 33.5602C398.44 32.8598 398.285 31.9247 398.543 30.8543C398.755 29.9717 398.582 29.0915 398.069 28.439C397.549 27.7794 396.722 27.4023 395.796 27.4023H389.638C383.669 27.4023 377.688 32.0765 376.306 37.8234L351.011 142.981C350.399 145.524 350.859 147.934 352.304 149.769C353.769 151.629 356.049 152.653 358.725 152.653H405.853V152.652Z" fill="white" stroke="#152A62" stroke-miterlimit="10"/>
<path d="M447.64 46.8945L450.503 49.6285L449.312 54.6622L446.45 51.9282L447.64 46.8945Z" stroke="#152A62" stroke-miterlimit="10" stroke-linejoin="round"/>
<path d="M445.613 55.168L448.475 57.9019L447.284 62.9356L444.422 60.2017L445.613 55.168Z" stroke="#152A62" stroke-miterlimit="10" stroke-linejoin="round"/>
<path d="M386.718 183.709C408.857 183.709 426.805 181.984 426.805 179.855C426.805 177.726 408.857 176 386.718 176C364.578 176 346.63 177.726 346.63 179.855C346.63 181.984 364.578 183.709 386.718 183.709Z" fill="#E3E0FD"/>
</g>
<defs>
<clipPath id="clip0_44890_1187061">
<path d="M0 16C0 7.16344 7.16344 0 16 0H784C792.837 0 800 7.16344 800 16V198C800 206.837 792.837 214 784 214H16C7.16343 214 0 206.837 0 198V16Z" fill="white"/>
</clipPath>
</defs>
</svg>

<svg xmlns="http://www.w3.org/2000/svg" width="800" height="214" fill="none" viewBox="0 0 800 214"><g clip-path="url(#a)"><path fill="#f5f4f9" d="M0 16C0 7.163 7.163 0 16 0h768c8.837 0 16 7.163 16 16v182c0 8.837-7.163 16-16 16H16c-8.837 0-16-7.163-16-16z"/><path fill="#e3e0fd" d="M464.882 55H335.868C324.895 55 316 63.895 316 74.868v64.216c0 10.973 8.895 19.868 19.868 19.868h129.014c10.973 0 19.868-8.895 19.868-19.868V74.868c0-10.973-8.895-19.868-19.868-19.868"/><path fill="#e3e0fd" stroke="#152a62" stroke-miterlimit="10" d="m349.449 154.174 1.768-2.312.561.278a13.3 13.3 0 0 1 .366-3.278l25.295-105.157c1.994-8.29 9.67-15.01 18.284-15.01h45.72c.586 0 1.154.038 1.709.099l1.628-2.43 6.23 6.23.009.009.129.127-.003.012c2.706 2.754 3.863 6.852 2.76 11.438L428.61 149.337c-1.844 7.67-9.802 13.889-17.774 13.889h-47.127c-3.687 0-6.718-1.342-8.743-3.532z"/><path fill="#f5f4f9" stroke="#152a62" stroke-miterlimit="10" d="M421.216 159.737c-3.064 2.163-6.717 3.486-10.379 3.486H363.71c-3.687 0-6.718-1.341-8.742-3.531l-5.518-5.519 1.768-2.311.559.278a13.4 13.4 0 0 1 .355-3.216l61.209 2.937z"/><path fill="#152a62" stroke="#152a62" stroke-miterlimit="10" d="M357.543 157.055h47.126c7.971 0 15.929-6.218 17.775-13.888l25.294-105.158C449.732 29.719 444.365 23 435.751 23h-44.796c-8.615 0-17.215 6.72-19.209 15.009l-25.294 105.158c-1.846 7.67 3.12 13.888 11.091 13.888Z"/><path fill="#fff" stroke="#152a62" stroke-miterlimit="10" d="M405.919 152.652c5.326 0 10.663-4.173 11.897-9.301L443.11 38.194c.683-2.84.172-5.53-1.441-7.576-1.635-2.074-4.181-3.216-7.169-3.216h-6.157c-1.793 0-3.523 1.354-3.939 3.083-.574 2.389-3.128 4.26-5.814 4.26h-16.641c-1.262 0-2.288-.42-2.89-1.185-.553-.7-.708-1.635-.45-2.706.213-.882.04-1.762-.474-2.415-.519-.66-1.347-1.037-2.273-1.037h-6.158c-5.968 0-11.95 4.675-13.332 10.421l-25.295 105.158c-.611 2.543-.151 4.953 1.294 6.788 1.465 1.86 3.745 2.884 6.42 2.884h47.128z"/><path stroke="#152a62" stroke-linejoin="round" stroke-miterlimit="10" d="m447.707 46.895 2.862 2.733-1.19 5.034-2.863-2.734zM445.679 55.168l2.862 2.734-1.19 5.034-2.863-2.734z"/><path fill="#e3e0fd" d="M386.784 183.709c22.14 0 40.088-1.725 40.088-3.854S408.924 176 386.784 176c-22.139 0-40.087 1.726-40.087 3.855s17.948 3.854 40.087 3.854"/><path fill="#e3e0fd" stroke="#152a62" stroke-miterlimit="10" d="m349.382 154.174 1.769-2.312.56.278a13.4 13.4 0 0 1 .367-3.278l25.294-105.157c1.994-8.29 9.671-15.01 18.285-15.01h45.72c.586 0 1.153.038 1.709.099l1.627-2.43 6.23 6.23.01.009.128.127-.002.012c2.706 2.754 3.863 6.852 2.759 11.438l-25.294 105.157c-1.845 7.67-9.802 13.889-17.774 13.889h-47.127c-3.688 0-6.718-1.342-8.744-3.532z"/><path fill="#f5f4f9" stroke="#152a62" stroke-miterlimit="10" d="M421.15 159.737c-3.065 2.163-6.717 3.486-10.379 3.486h-47.127c-3.688 0-6.718-1.341-8.743-3.531l-5.518-5.519 1.769-2.311.559.278a13.3 13.3 0 0 1 .355-3.216l61.209 2.937z"/><path fill="#152a62" stroke="#152a62" stroke-miterlimit="10" d="M357.476 157.055h47.127c7.971 0 15.929-6.218 17.774-13.888l25.295-105.158C449.666 29.719 444.298 23 435.684 23h-44.795c-8.615 0-17.215 6.72-19.209 15.009l-25.295 105.158c-1.846 7.67 3.12 13.888 11.091 13.888Z"/><path fill="#fff" stroke="#152a62" stroke-miterlimit="10" d="M405.853 152.652c5.325 0 10.663-4.173 11.896-9.301l25.295-105.157c.683-2.84.172-5.53-1.442-7.576-1.634-2.074-4.18-3.216-7.169-3.216h-6.156c-1.793 0-3.523 1.354-3.939 3.083-.574 2.389-3.128 4.26-5.815 4.26h-16.64c-1.262 0-2.288-.42-2.891-1.185-.552-.7-.707-1.635-.449-2.706.212-.882.039-1.762-.474-2.415-.52-.66-1.347-1.037-2.273-1.037h-6.158c-5.969 0-11.95 4.675-13.332 10.421l-25.295 105.158c-.612 2.543-.152 4.953 1.293 6.788 1.465 1.86 3.745 2.884 6.421 2.884h47.128z"/><path stroke="#152a62" stroke-linejoin="round" stroke-miterlimit="10" d="m447.64 46.895 2.863 2.733-1.191 5.034-2.862-2.734zM445.613 55.168l2.862 2.734-1.191 5.034-2.862-2.734z"/><path fill="#e3e0fd" d="M386.718 183.709c22.139 0 40.087-1.725 40.087-3.854S408.857 176 386.718 176s-40.088 1.726-40.088 3.855 17.948 3.854 40.088 3.854"/></g><defs><clipPath id="a"><path fill="#fff" d="M0 16C0 7.163 7.163 0 16 0h768c8.837 0 16 7.163 16 16v182c0 8.837-7.163 16-16 16H16c-8.837 0-16-7.163-16-16z"/></clipPath></defs></svg>
